X: 1
T: Luke the Bear
C: David A Kaynor Feb.2017
%D:2017
R: reel
Z: 2020 John Chambers <jc:trillian.mit.edu>
M: C|
L: 1/8
K: D
de |:\
"D"f3e d2AG | FAdA FAcd |\
[1,3 "A"e3d cAAF | "Em"GABc "A"defg :|\
[2,4 "A"e3d cAFG | Addc "D"d2 :|
|: FG |\
"D"A3G FDEF | "A7"GFGE "D"FDD2 |\
[1,3 A3G FDEF | "Em"GEFD "A"E2 :|\
[2,4 "Em"EFGA Bcde | "A"f2ec "D"d2 :|
%%text for Shirley Griffin
